Apricity Icons/16/panel/gpm-inhibit-invalid.svg

<svg xmlns="http://www.w3.org/2000/svg" width="16" height="16" version="1.1">
 <defs>
  <style id="current-color-scheme" type="text/css">
   .ColorScheme-Text { color:#dfdfdf; } .ColorScheme-Highlight { color:#4285f4; }
  </style>
 </defs>
 <path style="opacity:0.3;fill:currentColor" class="ColorScheme-Text" d="M 1.0195312 1 C -0.32982012 0.97408411 -0.3437201 3.0055241 1.0058594 2.9980469 L 1.0058594 13.988281 C 0.98681407 15.334124 3.0053831 15.337497 3.0019531 14.001953 L 2.9980469 14.001953 L 2.9980469 1.9707031 C 2.9816508 1.4332844 2.5475752 1.0000541 2.0058594 1 L 1.0195312 1 z M 3.9980469 2 L 3.9980469 12.988281 L 5.0039062 12.988281 L 5.0039062 14.261719 C 5.0039062 14.987815 5.7304688 14.986328 5.7304688 14.986328 L 6.0039062 14.986328 L 7.0039062 14.986328 L 7.0039062 12.988281 L 9.0019531 12.988281 L 9.0019531 14.982422 L 11.001953 14.982422 L 11.001953 12.988281 L 13 12.988281 L 13 7.9941406 L 12.509766 7.9941406 C 12.109729 7.9956406 11.86996 7.549488 12.091797 7.2167969 L 13.566406 4.9960938 L 12.509766 4.9960938 C 11.833843 5.0056437 11.833843 3.9884935 12.509766 3.9980469 L 14.5 3.9980469 C 14.899153 3.998132 15.137359 4.4414827 14.916016 4.7734375 L 13.439453 6.9941406 L 14.5 6.9941406 C 14.511865 6.993974 14.519802 6.9995444 14.53125 7 L 16 7 L 16 2.6855469 C 16 2.3047645 15.688444 2 15.300781 2 L 3.9980469 2 z M 6.0039062 3.9980469 L 10.001953 3.9980469 C 10.840526 3.9976973 11.307175 4.9667779 10.783203 5.6210938 L 8.0839844 8.9921875 L 10.001953 8.9921875 C 11.353798 8.9730765 11.353798 11.00934 10.001953 10.990234 L 6.0039062 10.990234 C 5.1653331 10.990583 4.6986842 10.021503 5.2226562 9.3671875 L 7.9199219 5.9960938 L 6.0039062 5.9960938 C 4.6520605 6.0151958 4.6520606 3.9789402 6.0039062 3.9980469 z"/>
 <path style="fill:currentColor" class="ColorScheme-Highlight" d="M 14 8 L 14 12 L 16 12 L 16 8 L 14 8 z M 14 13 L 14 15 L 16 15 L 16 13 L 14 13 z"/>
</svg>

<svg xmlns="http://www.w3.org/2000/svg" width="16" height="16"><path d="M1.02 1C-.33.974-.344 3.006 1.006 2.998v10.99c-.02 1.346 2 1.35 1.996.014h-.004V1.971A.996.996 0 0 0 2.006 1H1.02zm2.978 1v10.988h1.006v1.274c0 .726.726.724.726.724h1.274v-1.998h1.998v1.994h2v-1.994H13V7.994h-.49a.5.5 0 0 1-.418-.777l1.474-2.22H12.51c-.676.009-.676-1.009 0-.999h1.99c.4 0 .637.443.416.775l-1.477 2.221H14.5c.012 0 .02.006.031.006H16V2.686A.69.69 0 0 0 15.3 2H3.999zm2.006 1.998h3.998a.999.999 0 0 1 .781 1.623L8.084 8.992h1.918c1.352-.019 1.352 2.017 0 1.998H6.004a.999.999 0 0 1-.781-1.623l2.697-3.37H6.004c-1.352.018-1.352-2.018 0-1.999z" opacity=".3" fill="currentColor" color="#dfdfdf"/><path d="M14 8v4h2V8h-2zm0 5v2h2v-2h-2z" fill="currentColor" color="#5294e2"/></svg>
